icons/glyphs/glyph-layers.svg

<?xml version="1.0" encoding="UTF-8" standalone="no"?><svg height="22" viewBox="0 0 5.8208332 5.8208335" width="22" xmlns="http://www.w3.org/2000/svg"><sodipodi:namedview/><metadata><rdf:RDF><cc:Work><dc:format>image/svg+xml</dc:format><dc:type/><dc:title/><cc:license/><dc:creator><cc:Agent><dc:title>PixelPimps &amp; CodePoets</dc:title></cc:Agent></dc:creator></cc:Work><cc:License><cc:permits/><cc:permits/><cc:requires/><cc:requires/><cc:permits/></cc:License></rdf:RDF></metadata><path d="m5.5 0-5.5 4.9003906h16.5l5.5-4.9003906zm0 8.5507812-5.5 4.8984378h16.5l5.5-4.8984378zm0 8.5488278-5.5 4.900391h16.5l5.5-4.900391z" fill="#d0d0d0" transform="scale(.26458333)"/></svg>

<?xml version="1.0" encoding="UTF-8" standalone="no"?>
<!-- Created with Inkscape (http://www.inkscape.org/) -->

<svg
   xmlns:dc="http://purl.org/dc/elements/1.1/"
   xmlns:cc="http://creativecommons.org/ns#"
   xmlns:rdf="http://www.w3.org/1999/02/22-rdf-syntax-ns#"
   xmlns:svg="http://www.w3.org/2000/svg"
   xmlns="http://www.w3.org/2000/svg"
   xmlns:sodipodi="http://sodipodi.sourceforge.net/DTD/sodipodi-0.dtd"
   xmlns:inkscape="http://www.inkscape.org/namespaces/inkscape"
   width="22"
   height="22"
   viewBox="0 0 5.8208332 5.8208335"
   version="1.1"
   id="svg8"
   inkscape:version="0.92+devel 15739 custom"
   sodipodi:docname="glyph-layers.svg">
  <defs
     id="defs2" />
  <sodipodi:namedview
     id="base"
     pagecolor="#002466"
     bordercolor="#ffffff"
     borderopacity="0.32156863"
     inkscape:pageopacity="1"
     inkscape:pageshadow="2"
     inkscape:zoom="19.090909"
     inkscape:cx="11"
     inkscape:cy="11"
     inkscape:document-units="px"
     inkscape:current-layer="svg8"
     inkscape:document-rotation="0"
     showgrid="false"
     units="px"
     inkscape:pagecheckerboard="false"
     borderlayer="true"
     inkscape:showpageshadow="false"
     inkscape:window-width="1920"
     inkscape:window-height="1051"
     inkscape:window-x="0"
     inkscape:window-y="0"
     inkscape:window-maximized="1" />
  <metadata
     id="metadata5">
    <rdf:RDF>
      <cc:Work
         rdf:about="">
        <dc:format>image/svg+xml</dc:format>
        <dc:type
           rdf:resource="http://purl.org/dc/dcmitype/StillImage" />
        <dc:title></dc:title>
        <cc:license
           rdf:resource="http://creativecommons.org/licenses/by/4.0/" />
        <dc:creator>
          <cc:Agent>
            <dc:title>PixelPimps &amp; CodePoets</dc:title>
          </cc:Agent>
        </dc:creator>
      </cc:Work>
      <cc:License
         rdf:about="http://creativecommons.org/licenses/by/4.0/">
        <cc:permits
           rdf:resource="http://creativecommons.org/ns#Reproduction" />
        <cc:permits
           rdf:resource="http://creativecommons.org/ns#Distribution" />
        <cc:requires
           rdf:resource="http://creativecommons.org/ns#Notice" />
        <cc:requires
           rdf:resource="http://creativecommons.org/ns#Attribution" />
        <cc:permits
           rdf:resource="http://creativecommons.org/ns#DerivativeWorks" />
      </cc:License>
    </rdf:RDF>
  </metadata>
  <path
     style="fill:#d0d0d0;fill-opacity:1;stroke:none;stroke-width:1.83333337"
     d="M 5.5,0 0,4.9003906 H 16.5 L 22,0 Z M 5.5,8.5507812 0,13.449219 H 16.5 L 22,8.5507812 Z M 5.5,17.099609 0,22 H 16.5 L 22,17.099609 Z"
     transform="scale(0.26458333)"
     id="path4850"
     sodipodi:insensitive="true"
     inkscape:connector-curvature="0"
     inkscape:label="#" />
</svg>
